X:335
T: Liverpool Breakdown
S: "Ceol Rince na hEireann" 1/204
Z: B.Black
L: 1/8
M: C|
R: hornpipe
K: G
BA|Gggf gbaf|gedc Bd (3cBA|GDGg ecAG|FGAB c2 BA|
Gggf gbaf|gedc BcBA|GBdg ecAF|G2 GF G2 :|
ga|bage dega|bgag a2 ga|(3bag (3agf gedc|BAAA c2 BA|
Gggf gbaf|gedc BcBA|GBdg ecAF|G2 GF G2 :|
